projects/seb-pictograms/svg/light/05-Picto-Light_black.svg

<svg xmlns="http://www.w3.org/2000/svg" viewBox="0 0 170 170"><path d="M144.1 60.9H25.9v3h19.5v88.6a1.5 1.5 0 001.5 1.5h76.3a1.5 1.5 0 001.5-1.5V63.9h19.5zm-40.4 13.3a18.7 18.7 0 11-34.2-10.3h31a18.5 18.5 0 013.2 10.3zm-55.3 55.6h10.4a12.7 12.7 0 0011.1 11.1V151H48.4zm52 21.2v-10.1a12.7 12.7 0 0011.1-11.1h10.1V151zm21.2-24.2h-11.4a1.5 1.5 0 00-1.5 1.5A9.7 9.7 0 0199 138a1.5 1.5 0 00-1.5 1.5V151H72.9v-11.5a1.5 1.5 0 00-1.5-1.5 9.7 9.7 0 01-9.7-9.7 1.5 1.5 0 00-1.5-1.5H48.4V63.9H66a21.7 21.7 0 1038 0h17.6z"/><path d="M149.2 88.7h-13.3v-3h13.3c3.9 0 7.1-4.2 7.1-9.3V36.7c0-5.1-3.2-9.3-7.1-9.3H20.8c-3.9 0-7.1 4.2-7.1 9.3v39.7c0 5.1 3.2 9.3 7.1 9.3h16.3v3H20.8c-5.6 0-10.1-5.5-10.1-12.3V36.7c0-6.8 4.5-12.3 10.1-12.3h128.4c5.6 0 10.1 5.5 10.1 12.3v39.7c0 6.8-4.5 12.3-10.1 12.3z"/><path d="M124.7 42.3h19.4v3h-19.4z"/></svg>

<svg id="PIKTO_LIGHT" xmlns="http://www.w3.org/2000/svg" viewBox="0 0 170 170"><title>light_black</title><path d="M144.1,60.9H25.9v3H45.4v88.6a1.5,1.5,0,0,0,1.5,1.5h76.3a1.5,1.5,0,0,0,1.5-1.5V63.9h19.5ZM103.7,74.2A18.7,18.7,0,1,1,69.5,63.9h31A18.5,18.5,0,0,1,103.7,74.2ZM48.4,129.8H58.8a12.7,12.7,0,0,0,11.1,11.1V151H48.4ZM100.4,151V140.9a12.7,12.7,0,0,0,11.1-11.1h10.1V151Zm21.2-24.2H110.2a1.5,1.5,0,0,0-1.5,1.5,9.7,9.7,0,0,1-9.7,9.7,1.5,1.5,0,0,0-1.5,1.5V151H72.9V139.5a1.5,1.5,0,0,0-1.5-1.5,9.7,9.7,0,0,1-9.7-9.7,1.5,1.5,0,0,0-1.5-1.5H48.4V63.9H66a21.7,21.7,0,1,0,38,0h17.6Z"/><path d="M149.2,88.7H135.9v-3h13.3c3.9,0,7.1-4.2,7.1-9.3V36.7c0-5.1-3.2-9.3-7.1-9.3H20.8c-3.9,0-7.1,4.2-7.1,9.3V76.4c0,5.1,3.2,9.3,7.1,9.3H37.1v3H20.8c-5.6,0-10.1-5.5-10.1-12.3V36.7c0-6.8,4.5-12.3,10.1-12.3H149.2c5.6,0,10.1,5.5,10.1,12.3V76.4C159.3,83.2,154.8,88.7,149.2,88.7Z"/><rect x="124.7" y="42.3" width="19.4" height="3"/></svg>
